X: 1
T:PIPE MAJOR JOHN STEWART
M:C|
L:1/8
Q:80
C:P/M G.S. McLennan
S:March
K:HP
|: {gef}e3/4d/4|
{gcd}c{g}B/4{d}A3/4{GdGe}A{d}c/4e3/4|
{g}f/4a3/4c3/4d/4{gef}e{g}A3/4B/4|  !
{gcd}c{g}B/4{d}A3/4{g}A3/4B/4{GdG}c3/4d/4|
{g}c/4{d}A3/4{gef}e3/4c/4{gBG}B{gef}e3/4d/4|
{gcd}c{g}B/4{d}A3/4{GdGe}A{d}c/4e3/4|  !
{g}f/4a3/4c3/4d/4{gef}e{g}A3/4B/4|
{g}c/4e3/4{g}f3/4c/4{gef}e3/4c/4{g}B/4{d}A3/4|
{gcd}c{e}A{gAGAG}A:| |:  !
{g}c3/4d/4|
{gef}e{g}f3/4g/4{ag}ag3/4f/4|
{g}e3/4f/4{gef}e3/4c/4{GdG}e{g}e3/4d/4|  !
{gcd}c{g}B/4{d}A3/4{g}f3/4e/4{gde}d3/4c/4|
{Gdc}d3/4f/4{gef}e3/4c/4{gBG}B|1 {g}c3/4d/4|1
{gef}e{g}f3/4g/4{ag}ag3/4f/4|  !
{g}e3/4f/4{gef}e3/4c/4{GdG}e{g}A3/4B/4|
{g}c/4e3/4{g}f3/4c/4{gef}e3/4c/4{g}B/4{d}A3/4|
{gcd}c{e}A{gAGAG}A:|2  !
{g}A3/4B/4|
{gcd}c3/4B/4{g}c/4e3/4{g}A3/4{d}c/4{gef}e3/4c/4|
{Gdc}d3/4f/4a3/4f/4{gef}e{g}A3/4B/4|  !
{g}c/4e3/4{g}f3/4c/4{gef}e3/4c/4{g}B/4{d}A3/4|
{gcd}c{e}A{gAGAG}A|] |:
B|  !
{g}c/4e3/4{g}B3/4{d}c/4{g}A3/4{d}c/4{gef}e3/4A/4|
{g}c/4e3/4{g}f3/4c/4{gef}e{g}A3/4B/4|
{g}c{GdGe}c3/4B/4{g}A{GdGe}A3/4{d}c/4|  !
{g}B/4f3/4{gef}e3/4c/4{gBG}B{g}A3/4B/4|
{g}c/4e3/4{g}B3/4{d}c/4{g}A3/4{d}c/4{gef}e3/4A/4|
{g}c/4e3/4{g}f3/4c/4{gef}e{g}A3/4B/4|  !
{g}c/4e3/4{g}f3/4c/4{gef}e3/4c/4{g}B/4{d}A3/4|
{gcd}c{e}A{gAGAG}A:| |:
{gf}g|  !
{ag}a{GdG}a3/4c/4{gfg}f3/4e/4{g}c/4e3/4|
{gfg}f3/4e/4a3/4c/4{gef}e{gcd}c3/4B/4|
{g}A{GdGe}A3/4B/4{g}c/4{d}A3/4{d}c/4e3/4|  !
{g}f{GdG}e3/4c/4{gBG}B|1 {gf}g|1
{ag}a{GdG}a3/4c/4{gfg}f3/4e/4{g}c/4e3/4|
{gfg}f3/4e/4a3/4c/4{gef}e{g}A3/4B/4|  !
{g}c/4e3/4{g}f3/4c/4{gef}e3/4c/4{g}B/4{d}A3/4|
{gcd}c{e}A{gAGAG}A:|2
{gef}e3/4d/4|  !
{g}c/4d3/4{g}B3/4{d}c/4{g}A3/4{d}c/4{g}e/4a3/4|
{fg}f3/4e/4{g}c/4f3/4{gef}e{g}A3/4B/4|
{g}c/4e3/4{g}f3/4c/4{gef}e3/4c/4{g}B/4{d}A3/4|  !
{gcd}c{e}A{gAGAG}A|]
